X: 164
T: No_25_Calusa_Corn_Dance_Song.krn
N: Derived from No_25_Calusa_Corn_Dance_Song.krn
%%abc-version 2.0
%%abcx-abcm2ps-target-version 5.9.1 (29 Sep 2008)
%%abc-creator hum2abc beta
%%abcx-conversion-date 2019/03/15 08:38:45
%%humdrum-veritas 1468124614
%%humdrum-veritas-data 2035366949
%%linebreak <none>
%%barnumbers 0
L: 1/8
M: 3/4
K: Eb clef=bass
[K:clef=bass][M:3/4]z4E,E, | 
E,4E,E, | 
B,2B,2(C3/B,/) | 
B,2A,G,G,2 ||  
[M:2/4]G,E,E,2- | 
E,2B,2 ||  
[M:3/4]A,2G,3/E,/E,2 ||  
[M:2/4]G,E,E,2 | 
z2E,D, ||  
[M:3/4]E,2E,2E,2 | 
A,2G,3/E,/E,2 ||  
[M:2/4]G,E,E,2 | 
B,,2E,E, ||  
[M:3/4]E,2E,2E,E, | 
B,2B,2(C3/B,/) | 
B,A,G,2G,2 | 
A,2G,3/E,/E,2 ||  
[M:2/4]G,E,E,2 | 
z2E,D, ||  
[M:3/4]E,2E,2E,2 ||  
[M:2/4]A,2G,3/E,/ | 
E,B, B,B, ||  
[M:3/4]B,4CB, | 
B,B,G,2G,G, | 
G,E,E,2z2 | 
B,2G,G,G,2 ||  
[M:2/4]E,G, G,E, | 
E,2z2 | 
E,E, E,E, | 
E,2E,A, | 
A,A, G, z | 
E,G, G,E, ||  
[M:3/4]E,2z2E,D, | 
E,E,E,2E,B, | 
B,B,B,2CB, | 
B,B,G,2G,G, ||  
[M:2/4]G,E,E,2 ||  
[M:3/4]B,G, G,G,G,2 ||  
[M:2/4]E,G, G,E, | 
E,2B,,2 | 
(3E,E,E,E,2 | 
C2B,B, ||  
[M:3/4]B,2B,4 ||  
[M:2/4]C2B,B, | 
B,2G,2 | 
G,2B,2 | 
A,2G,3/E,/ | 
G,2G,2 ||  
[M:3/4]G,E,-E,2z2 ||  
[M:2/4]E,2E,D, | 
E,2E,2 | 
G,2B,2 | 
A,2G,3/E,/ | 
G,2G,2 ||  
[M:3/4]G,E,E,2z2 ||  
[M:2/4]E,2E,E, | 
E,2E,2 | 
B,2B,B, | 
B,2B,2 | 
C2B,B, | 
B,2G,2 | 
G,2B,2 | 
A,2G,3/E,/ | 
G,2G,2 ||  
[M:3/4]G,E,E,2z2 ||  
[M:2/4]E,2E,E, ||  
[M:3/4]E,2E,2E,2 | 
B,4B,2 | 
B,4C2 | 
G,4G,G, | 
G,4A,G, | 
G,4G,3/E,/ | 
E,2z2E,2 ||  
[M:2/4]G,4 | 
G,3/E,/ E,3/B,,/ ||  
[M:3/4]E,6 | 
E,2z2B,,2 | 
E,6 ||  
[M:2/4]E,4- | 
E,2E,2 ||  
[M:3/4]B,4B,G, | 
G,4B,2 | 
G,4G,2 | 
G,4A,G, ||  
[M:2/4]G,4 | 
G,E, E, z/ B,,/ ||  
[M:3/4]E,6 | 
E,2z2B,,2 | 
E,6 | 
E,4z2 |]  



